flaticon/symbols/encouragement.svg

<svg xmlns="http://www.w3.org/2000/svg" width="32" height="32" viewBox="0 0 24 24">
    <path d="M21.152344 19.933594L12.203125 19.933594 12.203125 22.78125 24 22.78125 24 12.203125 21.152344 12.203125zM21.964844 13.015625L23.1875 13.015625 23.1875 21.964844 13.015625 21.964844 13.015625 20.746094 21.964844 20.746094zM2.847656 12.203125L0 12.203125 0 22.78125 10.984375 22.78125 10.984375 19.933594 2.847656 19.933594zM10.167969 20.746094L10.167969 21.964844.8125 21.964844.8125 13.015625 2.035156 13.015625 2.035156 20.746094zM12.203125 1.21875L12.203125 4.066406 21.152344 4.066406 21.152344 10.984375 24 10.984375 24 1.21875zM23.1875 10.167969L21.964844 10.167969 21.964844 3.253906 13.015625 3.253906 13.015625 2.035156 23.1875 2.035156zM2.847656 4.066406L10.984375 4.066406 10.984375 1.21875 0 1.21875 0 10.984375 2.847656 10.984375zM2.035156 10.167969L.8125 10.167969.8125 2.035156 10.167969 2.035156 10.167969 3.253906 2.035156 3.253906zM4.066406 13.015625L11.390625 13.015625 11.390625 10.167969 4.066406 10.167969zM4.882812 10.984375L10.578125 10.984375 10.578125 12.203125 4.882812 12.203125zM12.609375 10.167969L12.609375 13.015625 19.933594 13.015625 19.933594 10.167969zM19.117188 12.203125L13.421875 12.203125 13.421875 10.984375 19.117188 10.984375zM19.117188 12.203125"/>
</svg>

<svg xmlns="http://www.w3.org/2000/svg" width="32" height="32" viewBox="0 0 24 24">
    <path d="M21.152 19.934h-8.949v2.847H24V12.203h-2.848zm.813-6.918h1.223v8.949H13.015v-1.219h8.949zm0 0M2.848 12.203H0v10.578h10.984v-2.847H2.848zm7.32 8.543v1.219H.813v-8.95h1.222v7.731zm0 0M12.203 1.219v2.847h8.95v6.918H24V1.22zm10.985 8.949h-1.223V3.254h-8.95V2.035h10.172zm0 0M2.848 4.066h8.136V1.22H0v9.765h2.848zm-.813 6.102H.812V2.035h9.356v1.219H2.035zm0 0M4.066 13.016h7.325v-2.848H4.066zm.817-2.032h5.695v1.22H4.883zm0 0M12.61 10.168v2.848h7.324v-2.848zm6.507 2.035h-5.695v-1.219h5.695zm0 0"/>
</svg>
